X:1
T:Eeph Caught a Rabbit
N:From the playing of Clinton Swathoff (Texas)
M:C|
L:1/8
R:Reel
Q:"Fast"
D:Library of Congress, AFS
D: https://www.slippery-hill.com/recording/eeph-caught-rabbit
Z:Transcribed by Andrew Kuntz
K:C
(3G,A,B,|C2C2 E2EF  |GEGc Ac-cA|C2E2EDC2 |A,3A, G,2G,A,-|
CA,C2 EDEF  |GEGc Ac-c|+slide+[e3e3]a- age2 |[c3e3][de]- [c2e2]:||
ag|egec egec|efga gedc|BdBG BdBG|Bd-dB d2ag|
egec egec|efga gedc|+slide+[e3e3]a ged2 |[c3e3][ce] [c2e2]a2-|
agec egec|e-gga gedc|BdBG BdBG|Bd-dB d2g-a|
agec egec |eg-ga g2 ec |eg-ga ged2|[c3e3][ce][c2e2]||

